X:2502
T: Avar
O: Dagestan
M: 6/8
L: 1/8
K: Bm
Q: 1/4=160
%%MIDI program 22 Harmonica
B,B,B, zB,z| B,B,B, zB,z| B,B,B, zB,z| B,B,B, zB,z|B,3z3|
Q: 1/4=200
FBA GFz    |DED CB,z    |FBA GFz     |DED CB,z    |\
B,ED GFz   |DCB, A,B,z  | B,ED GFz   |DCB, A,B,z  |
M: 4/4
L: 1/8
E2 ED EF D2|CB,CA,D2E2  | E2 ED EF D2|CB,CA,B,4   |\
E2 ED EF D2|CB,CA,D2E2  | E2 ED EF D2|CB,CA,B,4   |



